public/icons/other/velora.svg

<?xml version="1.0" encoding="UTF-8"?>
<svg xmlns="http://www.w3.org/2000/svg" xmlns:xlink="http://www.w3.org/1999/xlink" width="20px" height="20px" viewBox="0 0 20 20" version="1.1">
<defs>
<linearGradient id="linear0" gradientUnits="userSpaceOnUse" x1="548.583984" y1="145.932007" x2="161.132996" y2="600.39801" gradientTransform="matrix(0.0295858,0,0,0.0295858,0,0)">
<stop offset="0" style="stop-color:rgb(100%,61.960784%,0%);stop-opacity:1;"/>
<stop offset="1" style="stop-color:rgb(100%,41.960784%,23.137255%);stop-opacity:1;"/>
</linearGradient>
</defs>
<g id="surface1">
<path style=" stroke:none;fill-rule:evenodd;fill:url(#linear0);" d="M 12.597656 5.179688 C 13.878906 3.953125 16.75 3.894531 15.238281 7.019531 C 15.238281 7.019531 15.523438 7.339844 15.699219 7.601562 C 15.746094 7.707031 15.683594 7.804688 15.613281 7.910156 C 15.53125 8.03125 15.441406 8.160156 15.507812 8.332031 C 15.605469 8.585938 15.761719 8.832031 15.9375 9.117188 C 16.160156 9.476562 16.421875 9.894531 16.652344 10.457031 C 17.0625 11.460938 16.484375 13.015625 15.925781 13.921875 C 14.972656 15.398438 13.390625 14.808594 12.097656 14.171875 C 11.914062 14.082031 11.691406 14.164062 11.613281 14.355469 L 10.925781 16.046875 C 10.816406 16.316406 10.53125 16.472656 10.253906 16.394531 C 8.289062 15.832031 4.949219 13.851562 3.226562 9.613281 C 3.101562 9.300781 3.269531 8.949219 3.566406 8.792969 C 3.898438 8.617188 4.304688 8.359375 4.570312 8.023438 C 4.570312 8.023438 2.980469 5.457031 4.753906 4.5625 C 5.878906 4.070312 7.019531 4.421875 7.609375 4.730469 C 7.679688 4.757812 7.738281 4.785156 7.789062 4.8125 C 8.1875 4.996094 8.238281 5.023438 8.792969 4.90625 C 10.164062 4.59375 11.578125 4.753906 12.597656 5.179688 Z M 12.964844 8.496094 C 13.171875 9.058594 13.425781 9.710938 13.648438 10.132812 C 13.773438 10.367188 14.015625 10.5 14.28125 10.53125 C 15.425781 10.664062 15.785156 10.558594 16.011719 10.453125 C 16.113281 10.40625 16.167969 10.292969 16.105469 10.199219 C 16.105469 10.199219 15.21875 8.71875 14.777344 8.140625 C 14.765625 8.125 14.757812 8.109375 14.746094 8.09375 C 14.511719 7.757812 14.285156 7.425781 15.019531 7.4375 C 12.886719 5.230469 10.933594 4.878906 8.664062 5.375 C 8.222656 5.460938 7.980469 5.398438 7.523438 5.167969 C 7.035156 4.921875 6.34375 4.640625 5.445312 4.800781 C 6.082031 5.21875 6.613281 5.871094 6.980469 6.445312 C 7.445312 7.160156 8.230469 7.6875 9.082031 7.625 L 11.308594 7.460938 C 12.003906 7.40625 12.730469 7.839844 12.964844 8.496094 Z M 13.066406 5.355469 C 13.335938 5.109375 14.214844 4.664062 14.878906 4.898438 C 14.515625 4.914062 14.269531 5.078125 14.042969 5.226562 C 13.75 5.421875 13.496094 5.585938 13.066406 5.355469 Z M 4.609375 9.742188 C 4.476562 9.289062 4.140625 8.828125 3.578125 9.289062 C 4.726562 12.292969 6.765625 13.894531 6.765625 13.894531 C 5.679688 12.757812 4.972656 10.824219 4.609375 9.742188 Z M 12.570312 12.269531 C 10.984375 12.332031 9.929688 12.300781 9.367188 11.808594 C 13.523438 10.003906 15.367188 11.183594 15.367188 12.242188 C 15.371094 13.257812 14.542969 13.558594 13.417969 13.496094 C 12.296875 13.4375 11.203125 13.019531 10.671875 12.660156 C 10.671875 12.660156 11.847656 12.671875 12.570312 12.269531 Z M 16.386719 11.15625 C 16.160156 11.3125 15.90625 11.714844 15.828125 12.203125 C 15.492188 14.195312 16.546875 12.226562 16.386719 11.15625 Z M 15.59375 13.632812 C 14.902344 14.949219 13.164062 14.164062 12.289062 13.699219 C 13.550781 14.011719 14.644531 13.90625 15.386719 13.585938 C 15.453125 13.554688 15.53125 13.566406 15.585938 13.621094 Z M 8.265625 8.101562 L 9.953125 8 C 10.125 7.988281 10.277344 8.101562 10.398438 8.222656 C 10.628906 8.460938 11.230469 8.714844 12.292969 8.675781 C 12.4375 8.671875 12.574219 8.742188 12.644531 8.867188 C 13.101562 9.914062 12.757812 10.304688 10.605469 10.894531 C 6.640625 11.984375 5.015625 8.34375 8.265625 8.101562 Z M 8.265625 8.101562 "/>
</g>
</svg>

<svg xmlns="http://www.w3.org/2000/svg" width="20" height="20" viewBox="0 0 20 20"><defs><linearGradient id="a" gradientUnits="userSpaceOnUse" x1="548.584" y1="145.932" x2="161.133" y2="600.398" gradientTransform="scale(.02959)"><stop offset="0" style="stop-color:#ff9e00;stop-opacity:1"/><stop offset="1" style="stop-color:#ff6b3b;stop-opacity:1"/></linearGradient></defs><path style="stroke:none;fill-rule:evenodd;fill:url(#a)" d="M12.598 5.18c1.28-1.227 4.152-1.285 2.64 1.84 0 0 .285.32.461.582.047.105-.015.203-.086.308-.082.121-.172.25-.105.422.097.254.254.5.43.785.222.36.484.778.714 1.34.41 1.004-.168 2.559-.726 3.465-.953 1.476-2.535.887-3.828.25a.354.354 0 0 0-.485.183l-.687 1.692a.567.567 0 0 1-.672.348c-1.965-.563-5.305-2.543-7.027-6.782-.125-.312.043-.664.34-.82.331-.176.738-.434 1.003-.77 0 0-1.59-2.566.184-3.46 1.125-.493 2.266-.141 2.855.167.07.028.13.055.18.082.399.184.45.211 1.004.094 1.371-.312 2.785-.152 3.805.274Zm.367 3.316c.207.563.46 1.215.683 1.637.125.234.368.367.633.398 1.145.133 1.504.028 1.73-.078.102-.047.157-.16.094-.254 0 0-.886-1.48-1.328-2.058l-.03-.047c-.235-.336-.462-.668.273-.656-2.133-2.208-4.086-2.56-6.356-2.063-.441.086-.684.023-1.14-.207-.489-.246-1.18-.527-2.079-.367.637.418 1.168 1.07 1.535 1.644.465.715 1.25 1.242 2.102 1.18l2.227-.164c.695-.055 1.421.379 1.656 1.035Zm.101-3.14c.27-.247 1.149-.692 1.813-.458-.363.016-.61.18-.836.329-.293.195-.547.359-.977.128ZM4.61 9.741c-.132-.453-.468-.914-1.03-.453 1.148 3.004 3.187 4.606 3.187 4.606-1.086-1.137-1.793-3.07-2.157-4.153Zm7.961 2.528c-1.586.062-2.64.03-3.203-.461 4.156-1.805 6-.625 6 .433.004 1.016-.824 1.317-1.949 1.254-1.121-.059-2.215-.476-2.746-.836 0 0 1.176.012 1.898-.39Zm3.817-1.114c-.227.156-.48.559-.559 1.047-.336 1.992.719.024.559-1.047Zm-.793 2.477c-.692 1.316-2.43.531-3.305.066 1.262.313 2.356.207 3.098-.113a.174.174 0 0 1 .199.035Zm-7.329-5.53L9.953 8c.172-.012.324.102.445.223.23.238.832.492 1.895.453a.387.387 0 0 1 .352.191c.457 1.047.113 1.438-2.04 2.028-3.964 1.09-5.59-2.551-2.34-2.793Zm0 0"/></svg>
